styles/icons/chevrons_left.svg

<svg xmlns="http://www.w3.org/2000/svg" width="24" height="24" viewBox="0 0 24 24">
  <path fill-rule="evenodd" d="M12.7071068,17.2928932 L11.2928932,18.7071068 L4.58578644,12 L11.2928932,5.29289322 L12.7071068,6.70710678 L7.41421356,12 L12.7071068,17.2928932 Z M12.4142136,12 L17.7071068,17.2928932 L16.2928932,18.7071068 L9.58578644,12 L16.2928932,5.29289322 L17.7071068,6.70710678 L12.4142136,12 Z"/>
</svg>

<svg xmlns="http://www.w3.org/2000/svg" width="24" height="24" viewBox="0 0 24 24"><path fill-rule="evenodd" d="M12.707 17.293l-1.414 1.414L4.586 12l6.707-6.707 1.414 1.414L7.414 12l5.293 5.293zM12.414 12l5.293 5.293-1.414 1.414L9.586 12l6.707-6.707 1.414 1.414L12.414 12z"/></svg>
